X:1
T: The Growling Old Woman
C:
R:Jig
Q:180
K:Bb
M:6/8
L:1/16
|:F2|B2c2d2 d2c2d2|B6 G4B2|A2B2c2 c2A2c2|A6 F4A2|
B2c2d2 d2c2d2|d2f2b2 b2a2b2|g2f2e2 d2c2d2|B6G4:|
|:f2|f2g2f2 d2B2d2|f6B4f2|f2g2f2 e2d2c2|B6G4f2|
f2g2f2 e2d2c2|B2d2f2 b2a2b2|g2f2e2 d2c2d2|B6G4:|
